images/3232976.svg

<?xml version="1.0" encoding="UTF-8"?>
<svg xmlns="http://www.w3.org/2000/svg" xmlns:xlink="http://www.w3.org/1999/xlink" width="300pt" height="300pt" viewBox="0 0 300 300" version="1.1">
<defs>
<g>
<symbol overflow="visible" id="glyph0-0">
<path style="stroke:none;" d="M 0.640625 2.296875 L 0.640625 -9.171875 L 7.140625 -9.171875 L 7.140625 2.296875 Z M 1.375 1.578125 L 6.421875 1.578125 L 6.421875 -8.4375 L 1.375 -8.4375 Z M 1.375 1.578125 "/>
</symbol>
<symbol overflow="visible" id="glyph0-1">
<path style="stroke:none;" d="M 1.28125 -9.484375 L 3 -9.484375 L 7.203125 -1.546875 L 7.203125 -9.484375 L 8.453125 -9.484375 L 8.453125 0 L 6.71875 0 L 2.515625 -7.921875 L 2.515625 0 L 1.28125 0 Z M 1.28125 -9.484375 "/>
</symbol>
<symbol overflow="visible" id="glyph0-2">
<path style="stroke:none;" d="M 1.28125 -9.484375 L 2.5625 -9.484375 L 2.5625 -5.59375 L 7.21875 -5.59375 L 7.21875 -9.484375 L 8.5 -9.484375 L 8.5 0 L 7.21875 0 L 7.21875 -4.515625 L 2.5625 -4.515625 L 2.5625 0 L 1.28125 0 Z M 1.28125 -9.484375 "/>
</symbol>
<symbol overflow="visible" id="glyph0-3">
<path style="stroke:none;" d="M 5.125 -8.609375 C 4.1875 -8.609375 3.441406 -8.257812 2.890625 -7.5625 C 2.347656 -6.875 2.078125 -5.929688 2.078125 -4.734375 C 2.078125 -3.535156 2.347656 -2.585938 2.890625 -1.890625 C 3.441406 -1.203125 4.1875 -0.859375 5.125 -0.859375 C 6.050781 -0.859375 6.785156 -1.203125 7.328125 -1.890625 C 7.878906 -2.585938 8.15625 -3.535156 8.15625 -4.734375 C 8.15625 -5.929688 7.878906 -6.875 7.328125 -7.5625 C 6.785156 -8.257812 6.050781 -8.609375 5.125 -8.609375 Z M 5.125 -9.65625 C 6.445312 -9.65625 7.503906 -9.207031 8.296875 -8.3125 C 9.097656 -7.414062 9.5 -6.222656 9.5 -4.734375 C 9.5 -3.234375 9.097656 -2.035156 8.296875 -1.140625 C 7.503906 -0.253906 6.445312 0.1875 5.125 0.1875 C 3.789062 0.1875 2.722656 -0.253906 1.921875 -1.140625 C 1.128906 -2.035156 0.734375 -3.234375 0.734375 -4.734375 C 0.734375 -6.222656 1.128906 -7.414062 1.921875 -8.3125 C 2.722656 -9.207031 3.789062 -9.65625 5.125 -9.65625 Z M 5.125 -9.65625 "/>
</symbol>
<symbol overflow="visible" id="glyph0-4">
<path style="stroke:none;" d="M 1.28125 -9.484375 L 6.71875 -9.484375 L 6.71875 -8.390625 L 2.5625 -8.390625 L 2.5625 -5.609375 L 6.3125 -5.609375 L 6.3125 -4.53125 L 2.5625 -4.53125 L 2.5625 0 L 1.28125 0 Z M 1.28125 -9.484375 "/>
</symbol>
</g>
</defs>
<g id="surface43113">
<rect x="0" y="0" width="300" height="300" style="fill:rgb(100%,100%,100%);fill-opacity:1;stroke:none;"/>
<path style="fill:none;stroke-width:1.2;stroke-linecap:butt;stroke-linejoin:miter;stroke:rgb(0%,0%,0%);stroke-opacity:1;stroke-miterlimit:10;" d="M 260.71875 221.816406 L 228.21875 220.652344 "/>
<path style="fill:none;stroke-width:1.2;stroke-linecap:butt;stroke-linejoin:miter;stroke:rgb(0%,0%,0%);stroke-opacity:1;stroke-miterlimit:10;" d="M 228.21875 220.652344 L 220.601562 206.289062 "/>
<path style="fill:none;stroke-width:1.2;stroke-linecap:butt;stroke-linejoin:miter;stroke:rgb(0%,0%,100%);stroke-opacity:1;stroke-miterlimit:10;" d="M 220.601562 206.289062 L 212.980469 191.925781 "/>
<path style="fill:none;stroke-width:1.2;stroke-linecap:butt;stroke-linejoin:miter;stroke:rgb(0%,0%,100%);stroke-opacity:1;stroke-miterlimit:10;" d="M 212.980469 191.925781 L 196.730469 191.34375 "/>
<path style="fill:none;stroke-width:1.2;stroke-linecap:butt;stroke-linejoin:miter;stroke:rgb(0%,0%,0%);stroke-opacity:1;stroke-miterlimit:10;" d="M 196.730469 191.34375 L 180.480469 190.761719 "/>
<path style=" stroke:none;fill-rule:nonzero;fill:rgb(100%,100%,100%);fill-opacity:1;" d="M 202.980469 183.925781 L 222.980469 183.925781 L 222.980469 199.925781 L 202.980469 199.925781 Z M 202.980469 183.925781 "/>
<g style="fill:rgb(0%,0%,100%);fill-opacity:1;">
  <use xlink:href="#glyph0-1" x="202.980469" y="196.301758"/>
  <use xlink:href="#glyph0-2" x="212.950195" y="196.301758"/>
</g>
<path style="fill:none;stroke-width:1.2;stroke-linecap:butt;stroke-linejoin:miter;stroke:rgb(0%,0%,0%);stroke-opacity:1;stroke-miterlimit:10;" d="M 180.480469 190.761719 L 171.851562 204.542969 "/>
<path style="fill:none;stroke-width:1.2;stroke-linecap:butt;stroke-linejoin:miter;stroke:rgb(0%,0%,100%);stroke-opacity:1;stroke-miterlimit:10;" d="M 171.851562 204.542969 L 163.226562 218.324219 "/>
<path style="fill:none;stroke-width:1.2;stroke-linecap:butt;stroke-linejoin:miter;stroke:rgb(0%,0%,0%);stroke-opacity:1;stroke-miterlimit:10;" d="M 172.269531 189.457031 L 165.367188 200.480469 "/>
<path style="fill:none;stroke-width:1.2;stroke-linecap:butt;stroke-linejoin:miter;stroke:rgb(0%,0%,100%);stroke-opacity:1;stroke-miterlimit:10;" d="M 165.367188 200.480469 L 158.464844 211.507812 "/>
<path style="fill:none;stroke-width:1.2;stroke-linecap:butt;stroke-linejoin:miter;stroke:rgb(0%,0%,100%);stroke-opacity:1;stroke-miterlimit:10;" d="M 165.242188 162.035156 L 172.863281 176.398438 "/>
<path style="fill:none;stroke-width:1.2;stroke-linecap:butt;stroke-linejoin:miter;stroke:rgb(0%,0%,0%);stroke-opacity:1;stroke-miterlimit:10;" d="M 172.863281 176.398438 L 180.480469 190.761719 "/>
<path style="fill:none;stroke-width:1.2;stroke-linecap:butt;stroke-linejoin:miter;stroke:rgb(0%,0%,100%);stroke-opacity:1;stroke-miterlimit:10;" d="M 163.226562 218.324219 L 146.976562 217.742188 "/>
<path style="fill:none;stroke-width:1.2;stroke-linecap:butt;stroke-linejoin:miter;stroke:rgb(0%,0%,0%);stroke-opacity:1;stroke-miterlimit:10;" d="M 146.976562 217.742188 L 130.726562 217.160156 "/>
<path style=" stroke:none;fill-rule:nonzero;fill:rgb(100%,100%,100%);fill-opacity:1;" d="M 158.226562 210.324219 L 168.226562 210.324219 L 168.226562 226.324219 L 158.226562 226.324219 Z M 158.226562 210.324219 "/>
<g style="fill:rgb(0%,0%,100%);fill-opacity:1;">
  <use xlink:href="#glyph0-1" x="158.226562" y="222.700195"/>
</g>
<path style="fill:none;stroke-width:1.2;stroke-linecap:butt;stroke-linejoin:miter;stroke:rgb(0%,0%,0%);stroke-opacity:1;stroke-miterlimit:10;" d="M 130.726562 217.160156 L 115.488281 188.433594 "/>
<path style="fill:none;stroke-width:1.2;stroke-linecap:butt;stroke-linejoin:miter;stroke:rgb(0%,0%,0%);stroke-opacity:1;stroke-miterlimit:10;" d="M 135.960938 210.699219 L 123.769531 187.71875 "/>
<path style="fill:none;stroke-width:1.2;stroke-linecap:butt;stroke-linejoin:miter;stroke:rgb(0%,0%,0%);stroke-opacity:1;stroke-miterlimit:10;" d="M 115.488281 188.433594 L 132.742188 160.871094 "/>
<path style="fill:none;stroke-width:1.2;stroke-linecap:butt;stroke-linejoin:miter;stroke:rgb(0%,0%,100%);stroke-opacity:1;stroke-miterlimit:10;" d="M 82.988281 187.269531 L 99.238281 187.851562 "/>
<path style="fill:none;stroke-width:1.2;stroke-linecap:butt;stroke-linejoin:miter;stroke:rgb(0%,0%,0%);stroke-opacity:1;stroke-miterlimit:10;" d="M 99.238281 187.851562 L 115.488281 188.433594 "/>
<path style="fill:none;stroke-width:1.2;stroke-linecap:butt;stroke-linejoin:miter;stroke:rgb(0%,0%,0%);stroke-opacity:1;stroke-miterlimit:10;" d="M 132.742188 160.871094 L 148.992188 161.453125 "/>
<path style="fill:none;stroke-width:1.2;stroke-linecap:butt;stroke-linejoin:miter;stroke:rgb(0%,0%,100%);stroke-opacity:1;stroke-miterlimit:10;" d="M 148.992188 161.453125 L 165.242188 162.035156 "/>
<path style="fill:none;stroke-width:1.2;stroke-linecap:butt;stroke-linejoin:miter;stroke:rgb(0%,0%,0%);stroke-opacity:1;stroke-miterlimit:10;" d="M 135.71875 168.632812 L 148.71875 169.101562 "/>
<path style="fill:none;stroke-width:1.2;stroke-linecap:butt;stroke-linejoin:miter;stroke:rgb(0%,0%,100%);stroke-opacity:1;stroke-miterlimit:10;" d="M 148.71875 169.101562 L 161.71875 169.566406 "/>
<path style="fill:none;stroke-width:1.2;stroke-linecap:butt;stroke-linejoin:miter;stroke:rgb(0%,0%,0%);stroke-opacity:1;stroke-miterlimit:10;" d="M 132.742188 160.871094 L 125.121094 146.507812 "/>
<path style="fill:none;stroke-width:1.2;stroke-linecap:butt;stroke-linejoin:miter;stroke:rgb(0%,0%,100%);stroke-opacity:1;stroke-miterlimit:10;" d="M 125.121094 146.507812 L 117.503906 132.144531 "/>
<path style=" stroke:none;fill-rule:nonzero;fill:rgb(100%,100%,100%);fill-opacity:1;" d="M 160.242188 154.035156 L 170.242188 154.035156 L 170.242188 170.035156 L 160.242188 170.035156 Z M 160.242188 154.035156 "/>
<g style="fill:rgb(0%,0%,100%);fill-opacity:1;">
  <use xlink:href="#glyph0-1" x="160.242188" y="166.411133"/>
</g>
<path style="fill:none;stroke-width:1.2;stroke-linecap:butt;stroke-linejoin:miter;stroke:rgb(0%,0%,100%);stroke-opacity:1;stroke-miterlimit:10;" d="M 117.503906 132.144531 L 101.253906 131.5625 "/>
<path style="fill:none;stroke-width:1.2;stroke-linecap:butt;stroke-linejoin:miter;stroke:rgb(0%,0%,0%);stroke-opacity:1;stroke-miterlimit:10;" d="M 101.253906 131.5625 L 85.003906 130.980469 "/>
<path style="fill:none;stroke-width:1.2;stroke-linecap:butt;stroke-linejoin:miter;stroke:rgb(0%,0%,100%);stroke-opacity:1;stroke-miterlimit:10;" d="M 117.503906 132.144531 L 126.128906 118.363281 "/>
<path style="fill:none;stroke-width:1.2;stroke-linecap:butt;stroke-linejoin:miter;stroke:rgb(0%,0%,0%);stroke-opacity:1;stroke-miterlimit:10;" d="M 126.128906 118.363281 L 134.757812 104.582031 "/>
<path style=" stroke:none;fill-rule:nonzero;fill:rgb(100%,100%,100%);fill-opacity:1;" d="M 112.503906 124.144531 L 122.503906 124.144531 L 122.503906 140.144531 L 112.503906 140.144531 Z M 112.503906 124.144531 "/>
<g style="fill:rgb(0%,0%,100%);fill-opacity:1;">
  <use xlink:href="#glyph0-1" x="112.503906" y="136.520508"/>
</g>
<path style="fill:none;stroke-width:1.2;stroke-linecap:butt;stroke-linejoin:miter;stroke:rgb(0%,0%,0%);stroke-opacity:1;stroke-miterlimit:10;" d="M 88.382812 129.1875 L 80.761719 114.824219 "/>
<path style="fill:none;stroke-width:1.2;stroke-linecap:butt;stroke-linejoin:miter;stroke:rgb(100%,0%,0%);stroke-opacity:1;stroke-miterlimit:10;" d="M 80.761719 114.824219 L 73.144531 100.460938 "/>
<path style="fill:none;stroke-width:1.2;stroke-linecap:butt;stroke-linejoin:miter;stroke:rgb(0%,0%,0%);stroke-opacity:1;stroke-miterlimit:10;" d="M 81.625 132.773438 L 74.003906 118.410156 "/>
<path style="fill:none;stroke-width:1.2;stroke-linecap:butt;stroke-linejoin:miter;stroke:rgb(100%,0%,0%);stroke-opacity:1;stroke-miterlimit:10;" d="M 74.003906 118.410156 L 66.382812 104.046875 "/>
<path style="fill:none;stroke-width:1.2;stroke-linecap:butt;stroke-linejoin:miter;stroke:rgb(0%,0%,0%);stroke-opacity:1;stroke-miterlimit:10;" d="M 85.003906 130.980469 L 67.746094 158.542969 "/>
<path style=" stroke:none;fill-rule:nonzero;fill:rgb(100%,100%,100%);fill-opacity:1;" d="M 58.761719 94.253906 L 69.761719 94.253906 L 69.761719 110.253906 L 58.761719 110.253906 Z M 58.761719 94.253906 "/>
<g style="fill:rgb(100%,0%,0%);fill-opacity:1;">
  <use xlink:href="#glyph0-3" x="58.761719" y="106.629883"/>
</g>
<path style="fill:none;stroke-width:1.2;stroke-linecap:butt;stroke-linejoin:miter;stroke:rgb(0%,0%,0%);stroke-opacity:1;stroke-miterlimit:10;" d="M 67.746094 158.542969 L 75.367188 172.90625 "/>
<path style="fill:none;stroke-width:1.2;stroke-linecap:butt;stroke-linejoin:miter;stroke:rgb(0%,0%,100%);stroke-opacity:1;stroke-miterlimit:10;" d="M 75.367188 172.90625 L 82.988281 187.269531 "/>
<path style="fill:none;stroke-width:1.2;stroke-linecap:butt;stroke-linejoin:miter;stroke:rgb(0%,0%,0%);stroke-opacity:1;stroke-miterlimit:10;" d="M 76.03125 157.828125 L 82.128906 169.320312 "/>
<path style="fill:none;stroke-width:1.2;stroke-linecap:butt;stroke-linejoin:miter;stroke:rgb(0%,0%,100%);stroke-opacity:1;stroke-miterlimit:10;" d="M 82.128906 169.320312 L 88.222656 180.8125 "/>
<path style="fill:none;stroke-width:1.2;stroke-linecap:butt;stroke-linejoin:miter;stroke:rgb(0%,0%,0%);stroke-opacity:1;stroke-miterlimit:10;" d="M 67.746094 158.542969 L 35.25 157.378906 "/>
<path style=" stroke:none;fill-rule:nonzero;fill:rgb(100%,100%,100%);fill-opacity:1;" d="M 77.988281 179.269531 L 87.988281 179.269531 L 87.988281 195.269531 L 77.988281 195.269531 Z M 77.988281 179.269531 "/>
<g style="fill:rgb(0%,0%,100%);fill-opacity:1;">
  <use xlink:href="#glyph0-1" x="77.988281" y="191.645508"/>
</g>
<path style="fill:none;stroke-width:1.2;stroke-linecap:butt;stroke-linejoin:miter;stroke:rgb(0%,0%,0%);stroke-opacity:1;stroke-miterlimit:10;" d="M 134.757812 104.582031 L 167.257812 105.746094 "/>
<path style="fill:none;stroke-width:1.2;stroke-linecap:butt;stroke-linejoin:miter;stroke:rgb(0%,0%,0%);stroke-opacity:1;stroke-miterlimit:10;" d="M 167.257812 105.746094 L 182.496094 134.472656 "/>
<path style="fill:none;stroke-width:1.2;stroke-linecap:butt;stroke-linejoin:miter;stroke:rgb(0%,0%,0%);stroke-opacity:1;stroke-miterlimit:10;" d="M 175.539062 105.035156 L 187.734375 128.015625 "/>
<path style="fill:none;stroke-width:1.2;stroke-linecap:butt;stroke-linejoin:miter;stroke:rgb(0%,0%,0%);stroke-opacity:1;stroke-miterlimit:10;" d="M 184.511719 78.183594 L 167.257812 105.746094 "/>
<path style="fill:none;stroke-width:1.2;stroke-linecap:butt;stroke-linejoin:miter;stroke:rgb(0%,0%,0%);stroke-opacity:1;stroke-miterlimit:10;" d="M 182.496094 134.472656 L 214.996094 135.636719 "/>
<path style="fill:none;stroke-width:1.2;stroke-linecap:butt;stroke-linejoin:miter;stroke:rgb(0%,0%,0%);stroke-opacity:1;stroke-miterlimit:10;" d="M 214.996094 135.636719 L 232.253906 108.074219 "/>
<path style="fill:none;stroke-width:1.2;stroke-linecap:butt;stroke-linejoin:miter;stroke:rgb(0%,0%,0%);stroke-opacity:1;stroke-miterlimit:10;" d="M 210.234375 128.820312 L 224.042969 106.769531 "/>
<path style="fill:none;stroke-width:1.2;stroke-linecap:butt;stroke-linejoin:miter;stroke:rgb(0%,0%,0%);stroke-opacity:1;stroke-miterlimit:10;" d="M 232.253906 108.074219 L 217.011719 79.347656 "/>
<path style="fill:none;stroke-width:1.2;stroke-linecap:butt;stroke-linejoin:miter;stroke:rgb(0%,0%,0%);stroke-opacity:1;stroke-miterlimit:10;" d="M 232.253906 108.074219 L 248.5 108.65625 "/>
<path style="fill:none;stroke-width:1.2;stroke-linecap:butt;stroke-linejoin:miter;stroke:rgb(20%,80%,80%);stroke-opacity:1;stroke-miterlimit:10;" d="M 248.5 108.65625 L 264.75 109.238281 "/>
<path style="fill:none;stroke-width:1.2;stroke-linecap:butt;stroke-linejoin:miter;stroke:rgb(0%,0%,0%);stroke-opacity:1;stroke-miterlimit:10;" d="M 217.011719 79.347656 L 184.511719 78.183594 "/>
<path style="fill:none;stroke-width:1.2;stroke-linecap:butt;stroke-linejoin:miter;stroke:rgb(0%,0%,0%);stroke-opacity:1;stroke-miterlimit:10;" d="M 213.488281 86.878906 L 187.488281 85.949219 "/>
<path style=" stroke:none;fill-rule:nonzero;fill:rgb(100%,100%,100%);fill-opacity:1;" d="M 260.75 101.238281 L 268.75 101.238281 L 268.75 117.238281 L 260.75 117.238281 Z M 260.75 101.238281 "/>
<g style="fill:rgb(20%,80%,80%);fill-opacity:1;">
  <use xlink:href="#glyph0-4" x="260.75" y="113.614258"/>
</g>
</g>
</svg>

<svg xmlns="http://www.w3.org/2000/svg" xmlns:xlink="http://www.w3.org/1999/xlink" width="300pt" height="300pt" viewBox="0 0 300 300"><defs><symbol overflow="visible"><path d="M.64 2.297v-11.47h6.5v11.47zm.735-.72h5.047V-8.436H1.375zm0 0"/></symbol><symbol overflow="visible" id="a"><path d="M1.28-9.484H3l4.203 7.937v-7.937h1.25V0H6.72L2.515-7.922V0H1.28zm0 0"/></symbol><symbol overflow="visible" id="b"><path d="M1.28-9.484h1.282v3.89H7.22v-3.89H8.5V0H7.22v-4.516H2.562V0H1.28zm0 0"/></symbol><symbol overflow="visible" id="c"><path d="M5.125-8.61c-.938 0-1.684.352-2.234 1.047-.542.688-.812 1.633-.812 2.83 0 1.198.27 2.147.813 2.842.55.687 1.297 1.03 2.235 1.03.926 0 1.66-.343 2.203-1.03.55-.696.828-1.645.828-2.844 0-1.196-.277-2.14-.828-2.829-.543-.695-1.277-1.046-2.203-1.046zm0-1.046c1.32 0 2.38.45 3.172 1.344.8.898 1.203 2.09 1.203 3.578 0 1.5-.402 2.7-1.203 3.593C7.504-.255 6.445.186 5.125.186c-1.336 0-2.402-.44-3.203-1.328C1.13-2.036.734-3.235.734-4.735c0-1.49.395-2.68 1.188-3.579.8-.894 1.867-1.343 3.203-1.343zm0 0"/></symbol><symbol overflow="visible" id="d"><path d="M1.28-9.484h5.44v1.093H2.562v2.78h3.75v1.08h-3.75V0H1.28zm0 0"/></symbol></defs><g><path fill="#fff" d="M0 0h300v300H0z"/><path d="M260.72 221.816l-32.5-1.164M228.22 220.652L220.6 206.29" stroke-width="1.2" stroke="#000" stroke-miterlimit="10" fill="none"/><path d="M220.602 206.29l-7.622-14.364M212.98 191.926l-16.25-.582" stroke-width="1.2" stroke="#00f" stroke-miterlimit="10" fill="none"/><path d="M196.73 191.344l-16.25-.582" stroke-width="1.2" stroke="#000" stroke-miterlimit="10" fill="none"/><path d="M202.98 183.926h20v16h-20zm0 0" fill="#fff"/><g fill="#00f"><use xlink:href="#a" x="202.98" y="196.302"/><use xlink:href="#b" x="212.95" y="196.302"/></g><path d="M180.48 190.762l-8.628 13.78" stroke-width="1.2" stroke="#000" stroke-miterlimit="10" fill="none"/><path d="M171.852 204.543l-8.625 13.78" stroke-width="1.2" stroke="#00f" stroke-miterlimit="10" fill="none"/><path d="M172.27 189.457l-6.903 11.023" stroke-width="1.2" stroke="#000" stroke-miterlimit="10" fill="none"/><path d="M165.367 200.48l-6.902 11.028M165.242 162.035l7.62 14.363" stroke-width="1.2" stroke="#00f" stroke-miterlimit="10" fill="none"/><path d="M172.863 176.398l7.617 14.364" stroke-width="1.2" stroke="#000" stroke-miterlimit="10" fill="none"/><path d="M163.227 218.324l-16.25-.582" stroke-width="1.2" stroke="#00f" stroke-miterlimit="10" fill="none"/><path d="M146.977 217.742l-16.25-.582" stroke-width="1.2" stroke="#000" stroke-miterlimit="10" fill="none"/><path d="M158.227 210.324h10v16h-10zm0 0" fill="#fff"/><use xlink:href="#a" x="158.227" y="222.7" fill="#00f"/><path d="M130.727 217.16l-15.24-28.726M135.96 210.7l-12.19-22.98M115.488 188.434l17.254-27.563" stroke-width="1.2" stroke="#000" stroke-miterlimit="10" fill="none"/><path d="M82.988 187.27l16.25.582" stroke-width="1.2" stroke="#00f" stroke-miterlimit="10" fill="none"/><path d="M99.238 187.852l16.25.582M132.742 160.87l16.25.583" stroke-width="1.2" stroke="#000" stroke-miterlimit="10" fill="none"/><path d="M148.992 161.453l16.25.582" stroke-width="1.2" stroke="#00f" stroke-miterlimit="10" fill="none"/><path d="M135.72 168.633l13 .47" stroke-width="1.2" stroke="#000" stroke-miterlimit="10" fill="none"/><path d="M148.72 169.102l13 .464" stroke-width="1.2" stroke="#00f" stroke-miterlimit="10" fill="none"/><path d="M132.742 160.87l-7.62-14.362" stroke-width="1.2" stroke="#000" stroke-miterlimit="10" fill="none"/><path d="M125.12 146.508l-7.616-14.363" stroke-width="1.2" stroke="#00f" stroke-miterlimit="10" fill="none"/><path d="M160.242 154.035h10v16h-10zm0 0" fill="#fff"/><use xlink:href="#a" x="160.242" y="166.411" fill="#00f"/><path d="M117.504 132.145l-16.25-.583" stroke-width="1.2" stroke="#00f" stroke-miterlimit="10" fill="none"/><path d="M101.254 131.563l-16.25-.583" stroke-width="1.2" stroke="#000" stroke-miterlimit="10" fill="none"/><path d="M117.504 132.145l8.625-13.782" stroke-width="1.2" stroke="#00f" stroke-miterlimit="10" fill="none"/><path d="M126.13 118.363l8.628-13.78" stroke-width="1.2" stroke="#000" stroke-miterlimit="10" fill="none"/><path d="M112.504 124.145h10v16h-10zm0 0" fill="#fff"/><use xlink:href="#a" x="112.504" y="136.521" fill="#00f"/><path d="M88.383 129.188l-7.62-14.364" stroke-width="1.2" stroke="#000" stroke-miterlimit="10" fill="none"/><path d="M80.762 114.824l-7.617-14.363" stroke-width="1.2" stroke="#f00" stroke-miterlimit="10" fill="none"/><path d="M81.625 132.773l-7.62-14.363" stroke-width="1.2" stroke="#000" stroke-miterlimit="10" fill="none"/><path d="M74.004 118.41l-7.62-14.363" stroke-width="1.2" stroke="#f00" stroke-miterlimit="10" fill="none"/><path d="M85.004 130.98l-17.258 27.563" stroke-width="1.2" stroke="#000" stroke-miterlimit="10" fill="none"/><path d="M58.762 94.254h11v16h-11zm0 0" fill="#fff"/><use xlink:href="#c" x="58.762" y="106.63" fill="#f00"/><path d="M67.746 158.543l7.62 14.363" stroke-width="1.2" stroke="#000" stroke-miterlimit="10" fill="none"/><path d="M75.367 172.906l7.62 14.364" stroke-width="1.2" stroke="#00f" stroke-miterlimit="10" fill="none"/><path d="M76.03 157.828l6.1 11.492" stroke-width="1.2" stroke="#000" stroke-miterlimit="10" fill="none"/><path d="M82.13 169.32l6.093 11.493" stroke-width="1.2" stroke="#00f" stroke-miterlimit="10" fill="none"/><path d="M67.746 158.543L35.25 157.38" stroke-width="1.2" stroke="#000" stroke-miterlimit="10" fill="none"/><path d="M77.988 179.27h10v16h-10zm0 0" fill="#fff"/><use xlink:href="#a" x="77.988" y="191.646" fill="#00f"/><path d="M134.758 104.582l32.5 1.164M167.258 105.746l15.238 28.727M175.54 105.035l12.194 22.98M184.512 78.184l-17.254 27.562M182.496 134.473l32.5 1.164M214.996 135.637l17.258-27.563M210.234 128.82l13.81-22.05M232.254 108.074l-15.242-28.726M232.254 108.074l16.246.582" stroke-width="1.2" stroke="#000" stroke-miterlimit="10" fill="none"/><path d="M248.5 108.656l16.25.582" stroke-width="1.2" stroke="#3cc" stroke-miterlimit="10" fill="none"/><path d="M217.012 79.348l-32.5-1.164M213.488 86.88l-26-.93" stroke-width="1.2" stroke="#000" stroke-miterlimit="10" fill="none"/><path d="M260.75 101.238h8v16h-8zm0 0" fill="#fff"/><use xlink:href="#d" x="260.75" y="113.614" fill="#3cc"/></g></svg>
